X:1
T:D minor Oliver Holden, 1800
T:Isaac Watts, 1709 (Hymn 16, Book 2) 88. 88. (L. M.)
T:Temple No copyright. Transcribed from Plain Psalmody, 1800.
%%score [ 1 2 3 4 ]
L:1/8
M:4/4
K:F
V:1 treble nm="Treble" snm="Tr."
V:2 treble nm="Counter" snm="C."
V:3 treble-8 nm="Tenor" snm="T."
V:4 bass nm="Bass" snm="B."
V:1
 d4 A2 B2 | A4 F4 | E2 E2 F4 | A4 A2 F2 | c4 A4 | A2 A2 A4- | A4 z4 | z8 | z4 D4 | F2 A2 d2 A2 | %10
w: ||||||||And|in Thy tem- ple|
 A2 A2 A2 A2 | d2 df e2 e2 | ^c4 A4 | A6 AG | F2 F2 F2 F2 | G2 G2 G2 A2 | c2 c2 c2 A2 | A4 A4 | %18
w: let us see *||||||||
 A6 AB | c2 d2 A2 A2 | d2 ^c2 A3 G | (F3 G A2) A2 | (d^cde d2) AG | F4 E4 | D6 DE | F2 F2 A2 A2 | %26
w: * Here *|we could sit and|gaze a- way, a|long,~ * * an|ev- * * * * er- *|last- ing|day. * *||
 A2 d2 ^c3 d | A3 A A2 A2 | A4 A4 | A8 |] %30
w: ||||
V:2
 D4 D2 E2 | F4 D4 | ^C2 E2 D4 | F4 E2 F2 | E4 F4 | E2 FE D4- | D4 z4 | z8 | z8 | z8 | z4 z2 F2 | %11
w: 1.~Send com- forts|down from|Thy right hand,|While we march|through this|bar- ren * land;~|||||A|
 F2 F2 A2 A2 | A4 (F2 E2) | D6 D2 | C2 C2 C2 F2 | E2 E2 E2 F2 | A2 A2 G2 A2 | F4 E4 | D6 z2 | z8 | %20
w: glimpse of love, a|glimpse of *|Thee. While|such a scene of|sac- red joys our|rap- tured eyes and|souls em-|ploys,||
 z8 | z8 | z8 | z8 | z4 z2 D2 | D2 D2 F2 F2 | E2 F2 E3 F | F3 E F2 D2 | D4 ^C4 | D8 |] %30
w: ||||Here|we could sit and|gaze a- way, a|long, an ev- er-|last- ing|day.|
V:3
 A4 A2 G2 | F4 A4 | A2 ^c2 d4 | d4 ^c2 A2 | G4 c4 | e2 d^c A4- | A4 z4 | z4 D4 | F2 A2 d2 A2 | %9
w: |||||||And|in Thy tem- ple|
 F4 E4 | D6 FG | A2 Ad ^c2 c2 | e4 (d2 ^c2) | d6 FG | A2 A2 A2 A2 | c2 c2 c2 c2 | f2 f2 g2 e2 | %17
w: let us|see * *|||||||
 d4 ^c4 | A6 z2 | z8 | z8 | z8 | z8 | z8 | z4 z2 FG | A2 A2 d2 d2 | e2 d^c A3 A | d3 e d2 AG | %28
w: |||||||||||
 F4 E4 | D8 |] %30
w: ||
V:4
 D,4 D,2 ^C,2 | D,4 D,4 | A,,2 A,,2 D,4 | D,4 A,,2 A,,2 | C,4 C,4 | A,,2 A,,2 D,4- | D,4 D,4 | %7
w: ||||||* And|
 F,2 A,2 F,2 D,2 | F,2 E,2 D,2 D,2 | D,2 D,2 A,,2 A,,2 | D,2 D,2 D,2 D,2 | D,2 D,2 A,2 A,2 | %12
w: in Thy tem- ple|let us see, And|in Thy tem- ple|let us see *||
 A,4 A,,4 | D,6 D,E, | F,2 F,2 F,2 F,2 | C,2 C,2 C,2 F,2 | A,2 A,2 G,2 A,2 | A,4 A,,4 | D,6 A,G, | %19
w: ||||||* Here *|
 F,2 F,2 D,2 D,2 | D,2 A,,2 D,3 ^C, | (D,3 E, F,2) D,2 | A,,6 A,,2 | A,,4 A,,4 | D,6 D,2 | %25
w: we could sit and|gaze a- way, a|long,~ * * an|ev- er-|last- ing|day. *|
 D,2 D,2 D,2 D,2 | A,2 A,2 A,3 D, | D,3 ^C, D,2 D,2 | A,4 A,,4 | D,8 |] %30
w: |||||

